X:1
T:Våren kom en valborgsnatt
T:W. Peterson-Berger (1867-1942)
T:Våren kom en valborgsnatt
%%score [ 1 2 3 4 ]
L:1/8
Q:1/4=120
M:2/4
K:C
V:1 treble nm="S"
V:2 treble nm="A"
V:3 treble-8 nm="T"
V:4 bass nm="B"
V:1
"^Con moto. leggiero"!p! EE EF | EE EF |!<(! E^G AB!<)! | c2 Ac | eB B(c/d/) | cA A(^G/A/) | %6
w: Vå- ren kom en|Val- borgs- natt och|smög i- ge- nom|sko- gen med|dropp av tö och *|knopp av sälg i *|
 Bc BA |!>(! ^G3!>)!!p! E | EE EF | EE EF |!<(! E^G A!<)!B | c2 Ac | eB B(^d/^f/) | eB B(^d/^f/) | %14
w: kran- sen om sitt|hår. Och|mel- lan frät- ta|dok av snö låg|mar- ken re- do-|bo- gen att|lå- ta gräs och *|sip- por gro i *|
 eB A^F | EE/^D/ E!pp!E | F2 A2 | EE/^D/ EE |!<(! F!<)!c!>(! A!>)!F | EE/^D/ E^F |!<(! ^G2 B2!<)! | %21
w: hen- nes föt- ters|glitt- ri- ga spår. Och|all- ting|bi- da- de tyst den|ny- a da- gens|gry- en- de glans vid|ös- terns|
!f! !fermata!e4 ||[K:A]!p! A2 B2 | ce z c | cB/A/ BG | F2 E2 |!mf! E2 F2 | Gc z G | B(G/F/) C^D | %29
w: bryn.|Då kom|bäc- ken och|sjöng si- na gla- da|sån- ger.|"Hej- da'n,|stäck- en!" röt|Bo- re * grå till|
!<(! E!<)!E!>(! F!>)!G |!<(! A2 B2!<)! |!f! ce z c | cB/A/ BG |!>(! F2!>)! E2 |!mf!!<(! F2 G2!<)! | %35
w: sten och strå. "Den|fräc- ke|gäc- ken, som|stört mig så mång- a|gång- er,|skall få|
 Ac z!f! E |!<(! F2 G2!<)! | Ae z!mf! c | d>c B^A |!>(! cB A!>)!F |!p! E!<(!G AB!<)! | %41
w: knäc- ken! Nu|ja- gom|väck'- en!" Men|ge- nom blad och|grö- na valv det|ljöd ett skratt, ett|
!f!!>(! c3!>)!!<(! c!<)! |!mf!!>(! dc B^A | cB AF!>)! |!<(! E2 G2!<)! | A2!>(!{/c} B2 | %46
w: porl vid|sun- nan- vin- dens|ljum- ma suck och|trä- dens|mor- gon-|
 !fermata!A4!>)! |] %47
w: sorl.|
V:2
!p! EE ED | EE ED |!<(! ED E!<)!E | A2 EE | EE EE | EE EE | ^DD DD |!>(! E3!>)!!p! E | EE ED | %9
w: Vå- ren kom en|Val- borgs- natt och|smög i- ge- nom|sko- gen med|dropp av tö och|knopp av sälg i|kran- sen om sitt|hår. Och|mel- lan frät- ta|
 EE ED |!<(! ED EE!<)! | A2 EE | EE EA | BE EA | BE E^D | EE/^D/ E!pp!E | F2 A2 | EE/^D/ EE | %18
w: dok av snö låg|mar- ken re- do-|bo- gen att|lå- ta gräs och|sip- por gro i|hen- nes föt- ters|glitt- ri- ga spår. Och|all- ting|bi- da- de tyst den|
!<(! F!<)!c!>(! AF!>)! | EE/^D/ E^F |!<(! ^G2!<)! B2 |!f! !fermata!^G4 ||[K:A]!p! E2 E2 | EE z E | %24
w: ny- a da- gens|gry- en- de glans vid|ös- terns|bryn.|Då kom|bäc- ken och|
 ^DD/D/ DD | !courtesy!=D2 D2 |!mf! C2 E2 | EG z G | G^D CB, |!<(! B,!<)!E!>(! E!>)!E | %30
w: sjöng si- na gla- da|sån- ger.|"Hej- da'n,|stäck- en!" röt|Bo- re grå till|sten och strå. "Den|
!<(! E2!<)! E2 |!f! EE z E | ^DD/D/ DD |!>(! !courtesy!=D2!>)! D2 |!mf!!<(! D2 E2!<)! | EE z!f! E | %36
w: fräc- ke|gäc- ken, som|stört mig så mång- a|gång- er,|skall få|knäc- ken! Nu|
!<(! D2 E2 | EE!<)! z!mf! E | E>E EE |!>(! ^DD D!>)!D |!p!!<(! !courtesy!=D3 D!<)! | %41
w: ja- gom|väck'- en!" Men|ge- nom blad och|grö- na valv det|ljöd ett|
!f!!>(! CB!>)! A!<(!G!<)! |!mf!!>(! FE FE | ^DD D!>)!D |!<(! !courtesy!=D2 D2!<)! | D2!>(! D2 | %46
w: skratt, ett porl vid|sun- nan- vin- dens|ljum- ma suck och|trä- dens|mor- gon-|
 !fermata!C4!>)! |] %47
w: sorl.|
V:3
!p! cc cB | cc cB |!<(! cB c!<)!d | e2 cA | Bd d(c/B/) | Ac c(B/c/) | AA AA |!>(! B3!>)!!p! d | %8
w: Vå- ren kom en|Val- borgs- natt och|smög i- ge- nom|sko- gen med|dropp av tö och *|knopp av sälg i *|kran- sen om sitt|hår. Och|
 cc cB | cc cB |!<(! cB c!<)!d | e2 cA | BB BB | BB BB | BB cB | EE/^D/ E!pp!E | F2 A2 | %17
w: mel- lan frät- ta|dok av snö låg|mar- ken re- do-|bo- gen att|lå- ta gräs och|sip- por gro i|hen- nes föt- ters|glitt- ri- ga spår. Och|all- ting|
 EE/^D/ EE |!<(! F!<)!c!>(! A!>)!F | EE/^D/ E^F |!<(! ^G2!<)! B2 |!f! !fermata!d4 || %22
w: bi- da- de tyst den|ny- a da- gens|gry- en- de glans vid|ös- terns|bryn.|
[K:A]!p! c2 B2 | AA z A | AA/A/ AA | A2 G2 |!mf! A2 c2 | ce z e | ^dB AA | %29
w: Då kom|bäc- ken och|sjöng si- na gla- da|sån- ger.|"Hej- da'n,|stäck- en!" röt|Bo- re grå till|
!<(! G!<)!e!>(! ^d!>)!=d |!<(! c2!<)! B2 |!f! AA z A | AA/A/ AA |!>(! A2!>)! G2 | %34
w: sten och strå. "Den|fräc- ke|gäc- ken, som|stört mig så mång- a|gång- er,|
!mf!!<(! A2 B2!<)! | AA z!f! A |!<(! A2 B2 | AA!<)! z!mf! A | ^A>A Bc |!>(! !courtesy!=AA B!>)!=c | %40
w: skall få|knäc- ken! Nu|ja- gom|väck'- en!" Men|ge- nom blad och|grö- na valv det|
!p! B!<(!B F!<)!G |!f!!>(! (G2!>)! c)!<(!B!<)! |!mf!!>(! ^AA dc | !courtesy!=AA c!>)!A | %44
w: ljöd ett skratt, ett|porl * vid|sun- nan- vin- dens|ljum- ma suck och|
!<(! A2 B2!<)! | F2!>(! G2 | !fermata![EA]4!>)! |] %47
w: trä- dens|mor- gon-|sorl.|
V:4
!p! A,A, A,A, | A,A, A,A, |!<(! A,A, A,!<)!A, | A,2 A,A, | ^G,G, G,G, | A,A, A,A, | ^F,F, =F,F, | %7
w: Vå- ren kom en|Val- borgs- natt och|smög i- ge- nom|sko- gen med|dropp av tö och|knopp av sälg i|kran- sen om sitt|
!>(! E,3!>)!!p! ^G, | A,A, A,A, | A,A, A,A, |!<(! A,A, A,!<)!A, | A,2 A,A, | G,G, G,^F, | %13
w: hår. Och|mel- lan frät- ta|dok av snö låg|mar- ken re- do-|bo- gen att|lå- ta gräs och|
 G,G, G,^F, | G,G, A,B, | E,E,/^D,/ E,!pp!E, | F,2 A,2 | E,E,/^D,/ E,E, | %18
w: sip- por gro i|hen- nes föt- ters|glitt- ri- ga spår. Och|all- ting|bi- da- de tyst den|
!<(! F,!<)!C!>(! A,!>)!F, | E,E,/^D,/ E,^F, |!<(! ^G,2!<)! B,2 |!f! !fermata!E,4 || %22
w: ny- a da- gens|gry- en- de glans vid|ös- terns|bryn.|
[K:A]!p! A,2 G,2 | =G,G, z G, | F,F,/F,/ =F,F, | E,2 E,2 |!mf! A,2 A,2 | ^A,A, z A, | B,B, B,,B,, | %29
w: Då kom|bäc- ken och|sjöng si- na gla- da|sån- ger.|"Hej- da'n,|stäck- en!" röt|Bo- re grå till|
!<(! E,!<)!E,!>(! E,!>)!E, |!<(! A,2!<)! G,2 |!f! G,G, z G, | F,F,/F,/ =F,F, |!>(! E,2!>)! E,2 | %34
w: sten och strå. "Den|fräc- ke|gäc- ken, som|stört mig så mång- a|gång- er,|
!mf! D,2!<(! D,2!<)! | C,C, z!f! C, |!<(! D,2 D,2 | C,C,!<)! z!mf! A, | =G,>G, G,G, | %39
w: skall få|knäc- ken! Nu|ja- gom|väck'- en!" Men|ge- nom blad och|
!>(! F,F, F,!>)!A, |!p!!<(! !courtesy!^G,E, E,E,!<)! |!f!!>(! ^E,3!>)!!<(! E,!<)! | %42
w: grö- na valv det|ljöd ett skratt, ett|porl vid|
!mf!!>(! F,F, F,F, | B,,B,, B,,!>)!B,, |!<(! E,2 E,2!<)! | E,2!>(! E,2 | !fermata!A,,4!>)! |] %47
w: sun- nan- vin- dens|ljum- ma suck och|trä- dens|mor- gon-|sorl.|

